X:1
T:Title
%%score { ( 1 2 5 ) | ( 3 4 ) }
L:1/8
M:4/4
K:D
V:1 treble nm="Grand Piano"
V:2 treble 
V:5 treble 
V:3 bass 
V:4 bass 
V:1
 z4 z2[Q:1/4=100] z E | F2 ED A2 GF | [G,CE]2 [A,CF][K:bass][G,CE] [F,D]2[K:treble] [DFA]2 | %3
 B6 z2 | FFFF F2 z E | F2 ED A2 GF | z4[K:bass] z2[K:treble] [DF]2 | z DDD z ^GcB | %8
 A-[CA-][CA-][DA-] [EA]4 | d2 [Ed][=Fd] [^Fd]3 [FA] | [GB][FA][=F^G][^FA] F4 | B2 BB A d2 [Fd] | %12
 .[D^Gc]2 [CGc][Gd] [=Ge]3 [Gc] | [Fd]2 [Ac][GB] [FA]2 [A,DF][DFA] | %14
 [DGB]2 [B,D][B,DE] [A,DF]2 [B,DB]2 | F-[DF-][DF-][DF-] FG[A,F]E |[M:3/4][K:bass] D6 |] %17
V:2
 z4 z2 D2 | x8 | x3[K:bass] x3[K:treble] x2 | z GGG z d z B | A6 D2 | x8 | %6
 [G,CE]2 [A,CF][K:bass][G,CE] [F,D]2[K:treble] B,A, | E6 z2 | .C2 z2 z4 | x8 | x8 | x8 | x8 | x8 | %14
 x8 | .D2 z2 C2 C2 |[M:3/4][K:bass] z A, B,B, A,2 |] %17
V:3
 z4 z2 F,G, | [D,A,D]2 [D,G,C][D,F,] [D,F,D]2 [D,B,D][D,A,D] | A,,2 A,,A,, D,2 D,2 | %3
 [G,DG][G,D][G,D][G,D] [G,D]2[K:bass] B,D | [D,D][D,D][D,D][D,D] [D,D]2 D,-[D,G,] | %5
 [D,A,D]2 [D,G,C][D,F,] [D,F,D]2 [D,B,D][D,A,D] | A,,2 A,,A,, B,,2 B,,2 | %7
 [E,^G,D][E,G,][E,G,][E,G,] [E,G,]2 [E,G,D]2 | [A,,A,][A,,E,][A,,E,][A,,F,] [A,,G,]4 | %9
 [D,F,D]2 [D,G,][D,^G,] [D,A,]3 [D,D] | [D,D]2 [D,D][D,D] [D,A,D]4 | %11
 [G,D]2 [G,D][G,D] [F,A,D]3 [D,A,] | z[K:treble] B[K:bass]E,[E,B,] [A,C]3 [A,E] | %13
 [D,D]2 [D,D][D,D] [D,D]2 D,D, | G,2 G,G, D,2 G,,2 | [A,,A,][A,,A,][A,,A,][A,,A,] [A,,A,]2 z G, | %16
[M:3/4] [D,F,][D,F,] [D,G,][D,G,] [D,F,]2 |] %17
V:4
 z4 z2 D,2 | x8 | x8 | z4 z2[K:bass] G,2 | z4 z2 .F,2 | x8 | x8 | x8 | x8 | x8 | x8 | x8 | %12
 E,2[K:treble][K:bass] z2 z4 | x8 | x8 | z4 z2 A,,2 |[M:3/4] x6 |] %17
V:5
 x8 | x8 | x3[K:bass] x3[K:treble] x2 | z4 G2 G2 | x8 | x8 | x3[K:bass] x3[K:treble] x2 | %7
 z4 D2 z2 | x8 | x8 | x8 | x8 | x8 | x8 | x8 | x8 |[M:3/4][K:bass] x6 |] %17

